!!!COM: Claude Debussy
!!!CNT: Francais
!!!TXO: Francais
!!!OTL: Mandoline
!!!LYR: Paul Verlaine
!!!ENC: Jacob Pegg
!!!YOR: Claude Debussy: Songs 1880-1904, Edited by Rita Benton
!!!YOR: New York: Dover publications, inc., 1981
!!!YOR: ISBN 0-486-24131-9
!!!ODT: 1882/
!!NB: Vocal melody and text only encoded.
!!NB: First instance of melodic material only encoded.
**kern	**silbe
*clef G2	*
*k[]	*
*M6/8	*
*MM94	*
!! created: 6/25/03 19:36
!! last edited: 7/10/03 10:38
!! time (min) : input notes 17, words 9.  check : notes , words .
!! total edit time: about 36 min.
=4	=4
{4a	{Les
8a	don-
4dd	-neurs
8dd	de
=5	=5
(8.ff	se/-
16e)	|
8ff	-re/-
4dd	-na-
8a}	-des}
=6	=6
8r	.
{8g	{Et
8g	les
(8b	bel-
8dd)	|
8b	-les
=7	=7
(8.g	e/-
16f)	|
8e	-cou-
4g	-teu-
8g}	-ses}
=8	=8
8r	.
8r	.
{(8cc	{E-
4ee	-chan-
8ee)	-gent
=9	=9
8cc	des
8g	pro-
8cc	-pos
[4b	fa-
8b]}	-des}
=10	=10
{8b-	{Sous
8b-	les
8b-	ra-
8cc	-mu-
8a-	-res
8cc	chan-
=11	=11
(4.dd	-teu-
4.dd-	|
=12	=12
4.cc	|
4.cc-	|
=13	=13
[2.b-)	-ses.
=14	=14
4b-]}	|}
8r	.
4r	.
8r	.
=15	=15
{4f	{C'est
8a-	Tir-
4cc	-cis
8cc	et
=16	=16
8a-	c'est
8b-	|
8cc	A-
[4.dd	-min-
=17	=17
4.dd]	|
4.bn}	-te,}
=18	=18
{8g	{Et
8g	c'est
8g	l'e/-
8f	-ter-
8d	-nel
8f	Cli-
=19	=19
(4.g	-tan
4.b-	|
=20	=20
4.g	|
4.f	|
=21	=21
4.g)}	-dre,}
4r	.
8r	.
=22	=22
{8ee	{Et
8ee	c'est
8ee	Da-
(4dd	-mis
8dd	qui
=23	=23
8cc	pour
8a	main-
8cc)}	-te}
{8b-	{Cru-
8b-	-el-
8b-	-le
=24	=24
(8ee	fait
8gg	|
8ee	|
4dd	maint
8dd	vers
=25	=25
8cc	ten-
8gg	|
8cc)	|
[4.b-	-dre.
=26	=26
4.b-]}	|}
4r	.
8r	.
!! 27 rest and a temporary meter change
=28	=28
*k[f#c#g#d#]	*
8.r	.
{8.b	{Leurs
[8.cc#	cour-
8.cc#]	-tes
=29	=29
4.ee	ves-
(8.cc#	-tes
8.g#)	de
=30	=30
4.b}	soie,}
{8f#	{Leurs
8f#	lon-
8f#	-gues
=31	=31
4g#	ro-
8g#	-bes
8e	a\
8f#	|
8g#	|
=32	=32
[4.b	que-
8b]}	-es,}
8r	.
{8b	{Leur
=33	=33
8ee	e/-
8b	-le/-
[8b	-gan-
8b]	|
16b}	-ce,}
16r	.
{8b	{Leur
=34	=34
[4ee	joi-
8ee]}	-e}
{4.ee	{Et
=35	=35
4.a	leurs
(8b	mol-
8ddn)	|
8b	-les
=36	=36
8cc#	om-
8ee	|
8cc#	|
8b	-bres
8ddn	|
8b	|
=37	=37
[2.a	bleu-
=38	=38
4.a]}	-es}
4r	.
8r	.
!! 39-48 repeated material
=49	=49
*k[]	*
{2.a-	{La,
=50	=50
4.g}	la,}
{8an	{la,
8cc	la,
8an	la,
=51	=51
8b	la,
8dd	la,
8b	la,
8a	la,
8cc	la,
8a	la,
=52	=52
4.g	la,
4.f	la,
=53	=53
4.e-	la,
8f	la,
8a-	|
8f	la,
=54	=54
8g	la,
8b-	|
8g	la,
8f	la,
8a-	|
8f	la,
=55	=55
4.e-	la,
4.d-}	|}
=56	=56
{[2.c	{la,
=57	=57
2.c_	|
=58	=58
4.c]}	|}
{(8d	{la,
8f	|
8d	|
=59	=59
8e	|
8g	|
8e	|
8d	|
8f	|
8d)}	|}
=60	=60
{[2.c	{la,
=61	=61
2.c_	|
=62	=62
2.c_	la,
=63	=63
4.c]}	|}
{(4.g	{la,
=64	=64
[2.cc)	la,
=65	=65
2.cc]	|
=66	=66
[2.cc	la,
=67	=67
2.cc_	|
=68	=68
4.cc]}	|}
4r	.
8r	.
*-	*-
